X: 1
T:Horselett Hill House
M:C|
L:1/8
Q:80
C:Danny Edwards
S:Hornpipe
K:HP
|: f|
A3/4d/4{G}d3/4A/4{g}d3/4f/4a3/4f/4|
{g}e3/4g/4{a}f3/4e/4{g}d3/4e/4{g}f3/4d/4|
{g}c{GdG}e3/4f/4{a}g3/4f/4{g}e3/4g/4|  !
{a}f3/4e/4{g}d3/4B/4{gAd}A{g}fA3/4d/4{G}d3/4A/4{g}d3/4f/4a3/4f/4|
{g}e3/4g/4{a}f3/4e/4{g}e3/4c/4{g}d3/4B/4|
{g}G3/4a/4e3/4{g}A/4a3/4e/4{g}B3/4a/4|  !
{g}a3/4e/4{g}c3/4e/4{g}d:| |:
f|
{g}A3/4e/4{g}f3/4A/4{g}e3/4f/4{e}f3/4e/4|
{g}A3/4e/4{g}f3/4A/4a3/4g/4{a}f3/4e/4|  !
{g}A3/4c/4{G}c3/4A/4{g}c3/4{e}c/4{G}c3/4B/4|
{g}A3/4{d}c/4{g}e3/4A/4{g}f3/4e/4{g}d3/4B/4{g}A3/4e/4{g}f3/4A/4{g}e3/4f/
4{e}f3/4e/4|
{g}A3/4e/4{g}f3/4A/4a3/4g/4{a}f3/4e/4|  !
{g}G3/4a/4e3/4{g}A/4a3/4e/4{g}B3/4a/4|
{g}a3/4e/4{g}c3/4e/4{g}d:| |:
f|  !
{g}A3/4d/4{gdedG}d{g}A3/4f/4{e}f3/4A/4|
a3/4A/4{g}f3/4e/4{g}d3/4e/4{g}f3/4d/4|
{g}A3/4c/4{gdedG}c{g}A3/4e/4{A}e3/4g/4|  !
{a}f3/4e/4{g}d3/4e/4{g}d3/4c/4{g}B/4{d}A3/4{g}A3/4d/4{gdedG}d{g}A3/4f/4{
e}f3/4A/4|
a3/4A/4{g}f3/4e/4{g}d3/4e/4{g}f3/4d/4|
{g}G3/4a/4e3/4{g}A/4a3/4e/4{g}B3/4a/4|  !
{g}a3/4e/4{g}c3/4e/4{g}d:| |:
{g}f3/4g/4|
a3/4e/4{g}f3/4e/4{g}A3/4f/4{e}f3/4A/4|  !
a3/4A/4{g}f3/4e/4{gAGAG}A{g}e3/4f/4|
g3/4e/4{g}c3/4B/4{g}A3/4c/4{G}c3/4e/4|
{g}A3/4e/4{g}c3/4e/4g3/4e/4a3/4g/4a3/4e/4{g}f3/4e/4{g}A3/4f/4{e}f3/4A/4|
  !
a3/4A/4{g}f3/4e/4{gAGAG}A{g}e3/4f/4|
{g}G3/4a/4e3/4{g}A/4a3/4e/4{g}B3/4a/4|
{g}a3/4e/4{g}c3/4e/4{g}d:|  !
